assets/svg/mobi_logo_colored.svg

<svg fill="none" height="243" viewBox="0 0 666 243" width="666" xmlns="http://www.w3.org/2000/svg" xmlns:xlink="http://www.w3.org/1999/xlink"><linearGradient id="a"><stop offset="0" stop-color="#f1001c"/><stop offset=".07" stop-color="#e60028"/><stop offset=".38" stop-color="#b90060"/><stop offset=".66" stop-color="#970088"/><stop offset=".87" stop-color="#8300a1"/><stop offset="1" stop-color="#7c00ab"/></linearGradient><linearGradient id="b" gradientUnits="userSpaceOnUse" x1="6.34039" x2="677.926" xlink:href="#a" y1="187.327" y2="187.327"/><linearGradient id="c" gradientUnits="userSpaceOnUse" x1="0" x2="665.554" xlink:href="#a" y1="148.041" y2="148.041"/><linearGradient id="d" gradientUnits="userSpaceOnUse" x1="6.43468" x2="665.408" xlink:href="#a" y1="122.804" y2="120.526"/><linearGradient id="e" gradientUnits="userSpaceOnUse" x1=".68627" x2="653.397" y1="148.045" y2="148.045"><stop offset="0" stop-color="#f1001c"/><stop offset=".08" stop-color="#e60028"/><stop offset=".52" stop-color="#ad006e"/><stop offset=".84" stop-color="#89009a"/><stop offset="1" stop-color="#7c00ab"/></linearGradient><linearGradient id="f" gradientUnits="userSpaceOnUse" x1="11.6382" x2="687.149" y1="148.389" y2="148.389"><stop offset="0" stop-color="#f1001c"/><stop offset=".11" stop-color="#e1002e"/><stop offset=".54" stop-color="#ab0071"/><stop offset=".84" stop-color="#89009b"/><stop offset="1" stop-color="#7c00ab"/></linearGradient><clipPath id="g"><path d="m0 0h665.674v243h-665.674z"/></clipPath><g clip-path="url(#g)"><path d="m102.363 132.336h-15.8505v109.982h15.8505z" fill="url(#b)"/><path d="m57.7321 61.1854c-11.3765 4.9418-21.3718 11.7197-29.99 20.3379-8.6139 8.6182-15.3961 18.6137-20.33362 29.9857-4.94613 11.377-7.40848 23.611-7.40848 36.708v94.092h15.8508v-94.092c0-10.798 2.0677-20.964 6.2031-30.501 4.1353-9.536 9.7635-17.8667 16.8889-24.992 7.1211-7.1168 15.4476-12.7536 24.9924-16.889 9.5276-4.1353 19.6987-6.2073 30.5004-6.2073 10.8014 0 20.9644 2.0677 30.5004 6.2073 9.532 4.1354 17.807 9.7722 24.817 16.889 7.009 7.1253 12.582 15.456 16.717 24.992 4.135 9.537 6.203 19.703 6.203 30.501v94.092h15.859v-94.092c0-13.097-2.475-25.331-7.412-36.708-4.947-11.377-11.664-21.3675-20.162-29.9857-8.507-8.6182-18.502-15.3918-29.986-20.3379-11.493-4.9376-23.671-7.4128-36.5321-7.4128-12.8608 0-25.3355 2.4752-36.7078 7.4128z" fill="url(#c)"/><path d="m499.496 220.303c-9.558-4.127-17.906-9.742-25.036-16.846-7.138-7.109-12.779-15.414-16.923-24.933-4.144-9.506-6.216-19.651-6.216-30.432 0-10.78 2.068-20.917 6.216-30.431 4.144-9.511 9.785-17.7644 16.923-24.7568 7.13-6.9881 15.478-12.552 25.036-16.6788 9.549-4.1267 19.733-6.1901 30.556-6.1901s21.007 2.0634 30.556 6.1901c9.554 4.1268 17.841 9.6864 24.864 16.6788 7.022 6.9967 12.603 15.2458 16.747 24.7568 4.144 9.514 6.216 19.664 6.216 30.431 0 10.768-2.072 20.922-6.216 30.432-4.144 9.519-9.725 17.829-16.747 24.933-7.023 7.108-15.31 12.719-24.864 16.846-9.553 4.126-19.741 6.19-30.556 6.19s-21.012-2.064-30.556-6.19zm-63.712-220.303v147.972c0 13.719 2.822 27.344 8.699 39.741.313.665.639 1.326.97 1.986 5.293 10.545 12.136 19.72 20.544 27.511 8.403 7.794 18.068 13.924 29.007 18.394 10.931 4.47 22.62 6.71 35.052 6.71 13.123 0 25.379-2.463 36.772-7.396 11.394-4.925 21.351-11.69 29.87-20.286 8.511-8.597 15.246-18.571 20.201-29.918 4.946-11.346 7.426-23.555 7.426-36.622 0-13.066-2.48-25.275-7.426-36.622-4.955-11.342-11.69-21.2555-20.201-29.7407-8.519-8.4767-18.476-15.1816-29.87-20.1149-11.393-4.929-23.649-7.3913-36.772-7.3913-16.576 0-31.714 3.7793-45.407 11.3465-12.432 6.8637-22.732 15.9023-30.895 27.1072-.768 1.0553-2.428.5277-2.428-.7764v-91.9004h-15.538z" fill="url(#d)"/><path d="m665.674 53.777h-15.714v188.537h15.714z" fill="url(#e)"/><path d="m400.135 111.573c-4.907-11.466-11.629-21.5-20.183-30.1011-8.554-8.601-18.536-15.3617-29.943-20.295-11.411-4.9333-23.607-7.3999-36.609-7.3999-13.003 0-25.207 2.4666-36.614 7.3999-11.406 4.9333-21.384 11.6983-29.938 20.295-8.554 8.6011-15.285 18.6351-20.184 30.1011-4.911 11.476-7.357 23.74-7.357 36.816 0 13.075 2.446 25.344 7.357 36.81 4.904 11.475 11.634 21.505 20.184 30.106 8.554 8.601 18.532 15.366 29.938 20.299 11.407 4.934 23.607 7.396 36.614 7.396s25.198-2.462 36.609-7.396c11.407-4.933 21.389-11.698 29.943-20.299s15.28-18.635 20.183-30.106c4.904-11.466 7.357-23.735 7.357-36.81 0-13.076-2.453-25.34-7.357-36.816zm-14.542 67.436c-4.105 9.631-9.695 18.009-16.76 25.113-7.07 7.112-15.401 12.732-24.98 16.858-9.579 4.127-19.733 6.195-30.453 6.195s-20.87-2.068-30.453-6.195c-9.58-4.131-17.91-9.746-24.98-16.858-7.074-7.109-12.659-15.482-16.764-25.113-4.11-9.631-6.161-19.836-6.161-30.62 0-10.785 2.051-20.986 6.161-30.621 4.105-9.635 9.694-18.0044 16.764-25.1169 7.07-7.1082 15.4-12.7278 24.98-16.8589 9.583-4.1268 19.728-6.1902 30.453-6.1902 10.724 0 20.874 2.0634 30.453 6.1902 9.579 4.1311 17.91 9.7507 24.98 16.8589 7.069 7.1125 12.659 15.4819 16.76 25.1169 4.109 9.631 6.16 19.84 6.16 30.621 0 10.78-2.051 20.985-6.16 30.62z" fill="url(#f)"/></g></svg>

<svg width="666" height="243" viewBox="0 0 666 243" fill="none" xmlns="http://www.w3.org/2000/svg">
<g clip-path="url(#clip0_115_340)">
<path d="M102.363 132.336H86.5125V242.318H102.363V132.336Z" fill="url(#paint0_linear_115_340)"/>
<path d="M57.7321 61.1854C46.3556 66.1272 36.3603 72.9051 27.7421 81.5233C19.1282 90.1415 12.346 100.137 7.40848 111.509C2.46235 122.886 0 135.12 0 148.217V242.309H15.8508V148.217C15.8508 137.419 17.9185 127.253 22.0539 117.716C26.1892 108.18 31.8174 99.8493 38.9428 92.724C46.0639 85.6072 54.3904 79.9704 63.9352 75.835C73.4628 71.6997 83.6339 69.6277 94.4356 69.6277C105.237 69.6277 115.4 71.6954 124.936 75.835C134.468 79.9704 142.743 85.6072 149.753 92.724C156.762 99.8493 162.335 108.18 166.47 117.716C170.605 127.253 172.673 137.419 172.673 148.217V242.309H188.532V148.217C188.532 135.12 186.057 122.886 181.12 111.509C176.173 100.132 169.456 90.1415 160.958 81.5233C152.451 72.9051 142.456 66.1315 130.972 61.1854C119.479 56.2478 107.301 53.7726 94.4399 53.7726C81.5791 53.7726 69.1044 56.2478 57.7321 61.1854Z" fill="url(#paint1_linear_115_340)"/>
<path d="M499.496 220.303C489.938 216.176 481.59 210.561 474.46 203.457C467.322 196.348 461.681 188.043 457.537 178.524C453.393 169.018 451.321 158.873 451.321 148.092C451.321 137.312 453.389 127.175 457.537 117.661C461.681 108.15 467.322 99.8966 474.46 92.9042C481.59 85.9161 489.938 80.3522 499.496 76.2254C509.045 72.0987 519.229 70.0353 530.052 70.0353C540.875 70.0353 551.059 72.0987 560.608 76.2254C570.162 80.3522 578.449 85.9118 585.472 92.9042C592.494 99.9009 598.075 108.15 602.219 117.661C606.363 127.175 608.435 137.325 608.435 148.092C608.435 158.86 606.363 169.014 602.219 178.524C598.075 188.043 592.494 196.353 585.472 203.457C578.449 210.565 570.162 216.176 560.608 220.303C551.055 224.429 540.867 226.493 530.052 226.493C519.237 226.493 509.04 224.429 499.496 220.303ZM435.784 0V147.972C435.784 161.691 438.606 175.316 444.483 187.713C444.796 188.378 445.122 189.039 445.453 189.699C450.746 200.244 457.589 209.419 465.997 217.21C474.4 225.004 484.065 231.134 495.004 235.604C505.935 240.074 517.624 242.314 530.056 242.314C543.179 242.314 555.435 239.851 566.828 234.918C578.222 229.993 588.179 223.228 596.698 214.632C605.209 206.035 611.944 196.061 616.899 184.714C621.845 173.368 624.325 161.159 624.325 148.092C624.325 135.026 621.845 122.817 616.899 111.47C611.944 100.128 605.209 90.2145 596.698 81.7293C588.179 73.2526 578.222 66.5477 566.828 61.6144C555.435 56.6854 543.179 54.2231 530.056 54.2231C513.48 54.2231 498.342 58.0024 484.649 65.5696C472.217 72.4333 461.917 81.4719 453.754 92.6768C452.986 93.7321 451.326 93.2045 451.326 91.9004V0H435.788H435.784Z" fill="url(#paint2_linear_115_340)"/>
<path d="M665.674 53.777H649.96V242.314H665.674V53.777Z" fill="url(#paint3_linear_115_340)"/>
<path d="M400.135 111.573C395.228 100.107 388.506 90.073 379.952 81.4719C371.398 72.8709 361.416 66.1102 350.009 61.1769C338.598 56.2436 326.402 53.777 313.4 53.777C300.397 53.777 288.193 56.2436 276.786 61.1769C265.38 66.1102 255.402 72.8752 246.848 81.4719C238.294 90.073 231.563 100.107 226.664 111.573C221.753 123.049 219.307 135.313 219.307 148.389C219.307 161.464 221.753 173.733 226.664 185.199C231.568 196.674 238.298 206.704 246.848 215.305C255.402 223.906 265.38 230.671 276.786 235.604C288.193 240.538 300.393 243 313.4 243C326.407 243 338.598 240.538 350.009 235.604C361.416 230.671 371.398 223.906 379.952 215.305C388.506 206.704 395.232 196.67 400.135 185.199C405.039 173.733 407.492 161.464 407.492 148.389C407.492 135.313 405.039 123.049 400.135 111.573ZM385.593 179.009C381.488 188.64 375.898 197.018 368.833 204.122C361.763 211.234 353.432 216.854 343.853 220.98C334.274 225.107 324.12 227.175 313.4 227.175C302.68 227.175 292.53 225.107 282.947 220.98C273.367 216.849 265.037 211.234 257.967 204.122C250.893 197.013 245.308 188.64 241.203 179.009C237.093 169.378 235.042 159.173 235.042 148.389C235.042 137.604 237.093 127.403 241.203 117.768C245.308 108.133 250.897 99.7636 257.967 92.6511C265.037 85.5429 273.367 79.9233 282.947 75.7922C292.53 71.6654 302.675 69.602 313.4 69.602C324.124 69.602 334.274 71.6654 343.853 75.7922C353.432 79.9233 361.763 85.5429 368.833 92.6511C375.902 99.7636 381.492 108.133 385.593 117.768C389.702 127.399 391.753 137.608 391.753 148.389C391.753 159.169 389.702 169.374 385.593 179.009Z" fill="url(#paint4_linear_115_340)"/>
</g>
<defs>
<linearGradient id="paint0_linear_115_340" x1="6.34039" y1="187.327" x2="677.926" y2="187.327" gradientUnits="userSpaceOnUse">
<stop stop-color="#F1001C"/>
<stop offset="0.07" stop-color="#E60028"/>
<stop offset="0.38" stop-color="#B90060"/>
<stop offset="0.66" stop-color="#970088"/>
<stop offset="0.87" stop-color="#8300A1"/>
<stop offset="1" stop-color="#7C00AB"/>
</linearGradient>
<linearGradient id="paint1_linear_115_340" x1="0" y1="148.041" x2="665.554" y2="148.041" gradientUnits="userSpaceOnUse">
<stop stop-color="#F1001C"/>
<stop offset="0.07" stop-color="#E60028"/>
<stop offset="0.38" stop-color="#B90060"/>
<stop offset="0.66" stop-color="#970088"/>
<stop offset="0.87" stop-color="#8300A1"/>
<stop offset="1" stop-color="#7C00AB"/>
</linearGradient>
<linearGradient id="paint2_linear_115_340" x1="6.43468" y1="122.804" x2="665.408" y2="120.526" gradientUnits="userSpaceOnUse">
<stop stop-color="#F1001C"/>
<stop offset="0.07" stop-color="#E60028"/>
<stop offset="0.38" stop-color="#B90060"/>
<stop offset="0.66" stop-color="#970088"/>
<stop offset="0.87" stop-color="#8300A1"/>
<stop offset="1" stop-color="#7C00AB"/>
</linearGradient>
<linearGradient id="paint3_linear_115_340" x1="0.68627" y1="148.045" x2="653.397" y2="148.045" gradientUnits="userSpaceOnUse">
<stop stop-color="#F1001C"/>
<stop offset="0.08" stop-color="#E60028"/>
<stop offset="0.52" stop-color="#AD006E"/>
<stop offset="0.84" stop-color="#89009A"/>
<stop offset="1" stop-color="#7C00AB"/>
</linearGradient>
<linearGradient id="paint4_linear_115_340" x1="11.6382" y1="148.389" x2="687.149" y2="148.389" gradientUnits="userSpaceOnUse">
<stop stop-color="#F1001C"/>
<stop offset="0.11" stop-color="#E1002E"/>
<stop offset="0.54" stop-color="#AB0071"/>
<stop offset="0.84" stop-color="#89009B"/>
<stop offset="1" stop-color="#7C00AB"/>
</linearGradient>
<clipPath id="clip0_115_340">
<rect width="665.674" height="243" fill="white"/>
</clipPath>
</defs>
</svg>
